X: 24
T:Jenny Lind (Bampton) (RD)
M:4/4
L:1/8
O:England; Oxfordshire; Bampton.
B:Lionel Bacon, A Handbook of Morris Dances
Z:http://www.themorrisring.org/music/handbook-morris-dances
P:A(AB2)4
K:G
P:A
B2dB c2(3efe|d2b2 bab2|c2a2  ag(3afe|d2g2 g3 d|
B2dB c2(3efe|d2b2 bab2|c'2a2 fgaf   |g2b2 g4  ||
P:B
|:g2e2 egfe |d2B2 BcdB|c2A2 ABcA|1B2G2 B2d2:|2G2B2 G4||

